brandFactory_export/3.Masa/Añadir mas _3Masa.svg

<?xml version="1.0" encoding="UTF-8"?>
<svg width="24px" height="24px" viewBox="0 0 24 24" version="1.1" xmlns="http://www.w3.org/2000/svg" xmlns:xlink="http://www.w3.org/1999/xlink">
    <title>3.Masa/Añadir mas _3Masa</title>
    <g id="Symbols" stroke="none" stroke-width="1" fill="none" fill-rule="evenodd">
        <g id="3.Masa/Añadir-mas-_3Masa" fill="#5CB615" fill-rule="nonzero">
            <path d="M18.697479,12.5142857 L13.5445378,12.5142857 L13.5445378,17.6806723 C13.5445378,18.087395 13.2151261,18.4201681 12.805042,18.4201681 C12.394958,18.4201681 12.0655462,18.0907563 12.0655462,17.6806723 L12.0655462,12.5142857 L6.92268908,12.5142857 C6.51596639,12.5142857 6.18319328,12.1848739 6.18319328,11.7747899 C6.18319328,11.3680672 6.51260504,11.0352941 6.92268908,11.0352941 L12.0655462,11.0352941 L12.0655462,5.94285714 C12.0655462,5.53613445 12.394958,5.20336134 12.805042,5.20336134 C13.2151261,5.20336134 13.5445378,5.53277311 13.5445378,5.94285714 L13.5445378,11.0386555 L18.697479,11.0386555 C19.1042017,11.0386555 19.4369748,11.3680672 19.4369748,11.7781513 C19.4336134,12.1848739 19.1042017,12.5142857 18.697479,12.5142857 M13.3058824,0.0134453782 C13.0302521,0.00672268908 12.707563,0 12.3983193,0 L12.1865546,0 C9.81344538,0.0201680672 1,0.833613445 1,11.7747899 C1,22.7294118 9.89747899,23.5865546 12.2705882,23.6201681 C12.394958,23.6235294 12.5260504,23.6235294 12.6537815,23.6235294 C12.8991597,23.6235294 13.1411765,23.6201681 13.3495798,23.6168067 C15.605042,23.5764706 24.620169,22.7294118 24.620169,11.8453782 C24.6235294,0.981512605 15.6184874,0.0672268908 13.3058824,0.0134453782" id="Añadir-mas-_3Masa"></path>
        </g>
    </g>
</svg>

<svg width="24" height="24" viewBox="0 0 24 24" xmlns="http://www.w3.org/2000/svg"><path d="M18.697 12.514h-5.152v5.167a.74.74 0 01-1.48 0v-5.167H6.924a.74.74 0 010-1.479h5.143V5.943a.74.74 0 011.479 0v5.096h5.152c.407 0 .74.33.74.74a.741.741 0 01-.74.735M13.306.014A38.008 38.008 0 0012.398 0h-.211C9.813.02 1 .834 1 11.775 1 22.729 9.897 23.587 12.27 23.62c.125.004.256.004.384.004.245 0 .487-.004.696-.007 2.255-.04 11.27-.888 11.27-11.772C24.624.982 15.618.067 13.306.013" fill="#5CB615" fill-rule="nonzero"/></svg>
